X: 34700
T: Road To Foynes, The
R: reel
M: 4/4
K: Bminor
f|:edBe e2fe|dBBA FAAf|edBe e2de|faba f2df|
edBe e2fe|dBBA FAA2|(3Bcd ef afef|FAB2 B3f:|
|:edef a2fd|edBA FAAf|edef a2fa|defa b2fa|
bc'ba f2df|edBA FAA2|(3Bcd ef afef|1 FAB2 B3f:|2 FAB2 B4||

